assets/spark/icons/ArrowHorizontalUp.svg

<svg viewBox="0 0 24 24" xmlns="http://www.w3.org/2000/svg">
    <path fill-rule="evenodd" clip-rule="evenodd" d="M12 9.19421L3.89679 16.6996C3.46287 17.1001 2.75935 17.1001 2.32544 16.6996C1.89152 16.2991 1.89152 15.6497 2.32544 15.2492L10.6662 7.52448C10.8362 7.36111 11.0398 7.23057 11.2652 7.14051C11.4972 7.04782 11.7472 7 12 7C12.2528 7 12.5028 7.04782 12.7348 7.14051C12.9602 7.23057 13.1638 7.36111 13.3338 7.52448L21.6746 15.2492C22.1085 15.6497 22.1085 16.2991 21.6746 16.6996C21.2406 17.1001 20.5371 17.1001 20.1032 16.6996L12 9.19421Z" />
</svg>

<svg viewBox="0 0 24 24" xmlns="http://www.w3.org/2000/svg">
  <path d="m12,9.19l-8.1,7.51c-.43.4-1.14.4-1.57,0-.43-.4-.43-1.05,0-1.45l8.34-7.72c.17-.16.37-.29.6-.38.23-.09.48-.14.73-.14s.5.05.73.14c.23.09.43.22.6.38l8.34,7.72c.43.4.43,1.05,0,1.45-.43.4-1.14.4-1.57,0l-8.1-7.51Z"/>
</svg>
